svgs/sharp-regular/object-subtract.svg

<svg xmlns="http://www.w3.org/2000/svg" viewBox="0 0 512 512"><!--! Font Awesome Pro 6.6.0 by @fontawesome - https://fontawesome.com License - https://fontawesome.com/license (Commercial License) Copyright 2024 Fonticons, Inc. --><path d="M48 48l48 0L96 0 48 0 0 0 0 48 0 96l48 0 0-48zm176 0l0-48L128 0l0 48 96 0zM48 128L0 128l0 96 48 0 0-96zm0 128L0 256l0 48 0 48 48 0 48 0 0-48-48 0 0-48zm80 96l32 0 48 0 16 0 0-48-96 0 0 48zm32 32l0 80 0 48 48 0 256 0 48 0 0-48 0-256 0-48-48 0-80 0 0 48 80 0 0 256-256 0 0-80-48 0zM352 208l0-48 0-32-48 0 0 96 48 0 0-16zm0-160l0-48L304 0 256 0l0 48 48 0 0 48 48 0 0-48zM256 304l0 48 48 0 48 0 0-48 0-48-48 0 0 48-48 0z"/></svg>

<svg xmlns="http://www.w3.org/2000/svg" viewBox="0 0 512 512"><!--! Font Awesome Pro 6.4.0 by @fontawesome - https://fontawesome.com License - https://fontawesome.com/license (Commercial License) Copyright 2023 Fonticons, Inc. --><path d="M48 48l48 0V0H48 0V48 96H48l0-48zm176 0V0H128V48l96 0zM48 128H0v96H48l0-96zm0 128H0v48 48H48 96l0-48H48l0-48zm80 96h32l48 0h16V304l-96 0v48zm32 32l0 80v48h48l256 0h48V464 208l0-48H464l-80 0v48l80 0 0 256-256 0 0-80H160zM352 208l0-48V128H304l0 96h48V208zm0-160V0H304 256V48l48 0V96h48V48zM256 304v48h48 48V304 256H304v48H256z"/></svg>
